X:21
T:Les Fraises et les Framboises
M:4/4
K:G
B2 |\
B3GG2D2 | D6B2 | B3GF2G2 | A6c2 |\
c3AA2F2 | F6D2 | d2c2B2A2 |1 B6 :|2 G6 ||
|: d2 |\
G3GG2G2 | G6B2 | A2G2F2G2 | A4A2c2 |\
F3FF2F2 | F2F4d2 | d2c2B2A2 |1 B4B2 :|2 G6 |]
